X:39
T:Jhee Tar lo'sef
R:polka
Z:ad:hn-polko-124
M:2/4
L:1/8
K:Ador
EG FB|AG AG/A/|BG BG/E/|1 AG 


*****************************


15100 1 1.0790967 

<starion
AcB AF|E>E AB|AB cd|ef (3gfe|Bf ec|GB dB|AG AG|AB A2:|
|:Bg gB|cd fd|cG F/E/D|BB ED/E/|1 DG AD:|


*****************************


15200 1 0.8111332 

<starky:
M:2/4
L:1/8
K:D
dB/c/ Bd|ef ed|BA d>B|FA Bd|ef eA/d/|BA AB/A/G/|Fe c>ce|ea fg|ge dB|fe af|ea/e/ 


*****************************


15300 1 1.0706799 

<starn
A>AG FA|GE DB/A/|1 GG GA/G/:|2 D2 D2||
|:d/e/f/a/b/ e/c/e/|dB ce|f/e/d/c/ BA|G2 GA|dA c2:|
<end>
<


*****************************


15400 1 1.8230581 

<start>
